X:192
T:Lady Gordon
Z: id:dc-reel-175
M:C
L:1/8
K:D Major
E|FEDF A3B|d2fd efdB|BAFB ABde|faeg fdd:|!
A|defg a2fa|afef dBAB|defg afdB|ABde fddA|!
defg a2fa|afed Bdeg|fedB A2FA|ABde faa|]!

